Dominus_Dark_Funeral/scalable/mimes/application-x-cd-image.svg

<svg xmlns="http://www.w3.org/2000/svg" xmlns:xlink="http://www.w3.org/1999/xlink" width="48" height="48" viewBox="0 0 12.7 12.7"><defs><linearGradient id="b"><stop offset="0"/><stop offset="1" stop-opacity="0"/></linearGradient><linearGradient gradientTransform="scale(.26458)" xlink:href="#a" id="c" x1="5.55" y1=".5" x2="48.38" y2="27.09" gradientUnits="userSpaceOnUse"/><linearGradient id="a"><stop offset="0" stop-color="#676c53"/><stop offset=".2" stop-color="#8a916f"/><stop offset=".33" stop-color="#676c53"/><stop offset=".44" stop-color="#8a916f"/><stop offset=".57" stop-color="#848872"/><stop offset=".76" stop-color="#4e513e"/><stop offset="1" stop-color="#676c53"/></linearGradient><linearGradient xlink:href="#b" id="d" x1="3.43" y1="4.16" x2="9.8" y2="6.29" gradientUnits="userSpaceOnUse"/></defs><path fill="url(#c)" d="M10.82 4.6l-2.07 8.1h-4.8L1.88 4.6 3.44 0h5.82z"/><path d="M4.53 6.7l-.59-2.03.1-.58.51-.98.76-.64 1.04-.36 2.1.97L9.5 4.197l.14.453-1.483 5.668z" opacity=".62" fill="url(#d)"/><path fill="none" d="M4.84 11.6l-.89 1.1h4.8l-.89-1.1z"/><path fill-opacity=".35" fill="#22241c" d="M3.44 0l.82 1.1h4.18L9.26 0z"/><path fill-opacity=".47" fill="#22241c" d="M4.84 11.6l-.89 1.1-2.07-8.1 1.18.05z"/><path fill-opacity=".71" fill="#22241c" d="M1.88 4.6L3.44 0l.82 1.1-1.2 3.55zm8.94 0L9.26 0l-.82 1.1 1.2 3.55z"/><path d="M7.86 11.6l.89 1.1 2.07-8.1-1.17.05z" fill="#22241c" fill-opacity=".47"/><path fill-opacity=".1" fill="#22241c" d="M4.84 11.6l-.89 1.1h4.8l-.89-1.1z"/><path class="ColorScheme-Text" d="M6.35 2.1a2.65 2.65 0 1 0 0 5.32 2.65 2.65 0 0 0 0-5.31zm-.78.6l.5 1.3-.13.06-.81-1.15c.13-.1.28-.16.44-.22zm-.63.35l.86 1.12a.81.81 0 0 0-.24.46l-1.4-.24c.1-.54.38-1 .78-1.34zm1.41 1.33a.38.38 0 1 1 0 .76.38.38 0 0 1 0-.76zm.8.52l1.38.23c-.09.54-.37 1-.77 1.34L6.9 5.36a.81.81 0 0 0 .24-.46zm-.39.55l.81 1.16c-.13.09-.28.16-.44.22l-.5-1.32c.04-.02.1-.03.13-.06z" fill="#e2e3db"/></svg>

<?xml version="1.0" encoding="UTF-8" standalone="no"?>
<svg
   xmlns:dc="http://purl.org/dc/elements/1.1/"
   xmlns:cc="http://creativecommons.org/ns#"
   xmlns:rdf="http://www.w3.org/1999/02/22-rdf-syntax-ns#"
   xmlns:svg="http://www.w3.org/2000/svg"
   xmlns="http://www.w3.org/2000/svg"
   xmlns:xlink="http://www.w3.org/1999/xlink"
   xmlns:sodipodi="http://sodipodi.sourceforge.net/DTD/sodipodi-0.dtd"
   xmlns:inkscape="http://www.inkscape.org/namespaces/inkscape"
   width="48"
   height="48"
   viewBox="0 0 12.7 12.7"
   version="1.1"
   id="svg44"
   sodipodi:docname="application-x-cd-image.svg"
   inkscape:version="0.92.4 (5da689c313, 2019-01-14)">
  <metadata
     id="metadata48">
    <rdf:RDF>
      <cc:Work
         rdf:about="">
        <dc:format>image/svg+xml</dc:format>
        <dc:type
           rdf:resource="http://purl.org/dc/dcmitype/StillImage" />
        <dc:title></dc:title>
      </cc:Work>
    </rdf:RDF>
  </metadata>
  <sodipodi:namedview
     pagecolor="#ffffff"
     bordercolor="#666666"
     borderopacity="1"
     objecttolerance="10"
     gridtolerance="10"
     guidetolerance="10"
     inkscape:pageopacity="0"
     inkscape:pageshadow="2"
     inkscape:window-width="1112"
     inkscape:window-height="480"
     id="namedview46"
     showgrid="false"
     inkscape:zoom="4.9166667"
     inkscape:cx="2.1355932"
     inkscape:cy="24"
     inkscape:window-x="0"
     inkscape:window-y="25"
     inkscape:window-maximized="0"
     inkscape:current-layer="svg44" />
  <defs
     id="defs24">
    <linearGradient
       id="b">
      <stop
         offset="0"
         id="stop2" />
      <stop
         offset="1"
         stop-opacity="0"
         id="stop4" />
    </linearGradient>
    <linearGradient
       gradientTransform="scale(0.26458)"
       xlink:href="#a"
       id="c"
       x1="5.55"
       y1=".5"
       x2="48.38"
       y2="27.09"
       gradientUnits="userSpaceOnUse" />
    <linearGradient
       id="a">
      <stop
         offset="0"
         stop-color="#676c53"
         id="stop8" />
      <stop
         offset=".2"
         stop-color="#8a916f"
         id="stop10" />
      <stop
         offset=".33"
         stop-color="#676c53"
         id="stop12" />
      <stop
         offset=".44"
         stop-color="#8a916f"
         id="stop14" />
      <stop
         offset=".57"
         stop-color="#848872"
         id="stop16" />
      <stop
         offset=".76"
         stop-color="#4e513e"
         id="stop18" />
      <stop
         offset="1"
         stop-color="#676c53"
         id="stop20" />
    </linearGradient>
    <linearGradient
       xlink:href="#b"
       id="d"
       x1="3.43"
       y1="4.16"
       x2="9.8"
       y2="6.29"
       gradientUnits="userSpaceOnUse" />
  </defs>
  <path
     d="M 10.82,4.6 8.75,12.7 H 3.95 L 1.88,4.6 3.44,0 h 5.82 z"
     id="path26"
     style="fill:url(#c)"
     inkscape:connector-curvature="0" />
  <path
     d="M 4.53,6.7 3.94,4.67 4.04,4.09 4.55,3.11 5.31,2.47 6.35,2.11 8.45,3.08 9.5,4.197 9.64,4.65 8.157,10.318 Z"
     id="path28"
     style="opacity:0.62000002;fill:url(#d)"
     inkscape:connector-curvature="0" />
  <path
     d="m 4.84,11.6 -0.89,1.1 h 4.8 L 7.86,11.6 Z"
     id="path30"
     inkscape:connector-curvature="0"
     style="fill:none" />
  <path
     d="M 3.44,0 4.26,1.1 H 8.44 L 9.26,0 Z"
     id="path32"
     inkscape:connector-curvature="0"
     style="fill:#22241c;fill-opacity:0.35" />
  <path
     d="M 4.84,11.6 3.95,12.7 1.88,4.6 3.06,4.65 Z"
     id="path34"
     inkscape:connector-curvature="0"
     style="fill:#22241c;fill-opacity:0.47000002" />
  <path
     d="M 1.88,4.6 3.44,0 4.26,1.1 3.06,4.65 Z m 8.94,0 L 9.26,0 8.44,1.1 9.64,4.65 Z"
     id="path36"
     inkscape:connector-curvature="0"
     style="fill:#22241c;fill-opacity:0.70999995" />
  <path
     d="M 7.86,11.6 8.75,12.7 10.82,4.6 9.65,4.65 Z"
     id="path38"
     inkscape:connector-curvature="0"
     style="fill:#22241c;fill-opacity:0.47000002" />
  <path
     d="m 4.84,11.6 -0.89,1.1 h 4.8 L 7.86,11.6 Z"
     id="path40"
     inkscape:connector-curvature="0"
     style="fill:#22241c;fill-opacity:0.1" />
  <path
     class="ColorScheme-Text"
     d="m 6.35,2.1 a 2.66,2.66 0 1 0 0,5.32 2.655,2.655 0 0 0 0,-5.31 z M 5.57,2.7 6.07,4 5.94,4.06 5.13,2.91 C 5.26,2.81 5.41,2.75 5.57,2.69 Z M 4.94,3.05 5.8,4.17 A 0.81,0.81 0 0 0 5.56,4.63 L 4.16,4.39 c 0.1,-0.54 0.38,-1 0.78,-1.34 z m 1.41,1.33 a 0.38,0.38 0 1 1 0,0.76 0.38,0.38 0 0 1 0,-0.76 z M 7.15,4.9 8.53,5.13 C 8.44,5.67 8.16,6.13 7.76,6.47 L 6.9,5.36 A 0.81,0.81 0 0 0 7.14,4.9 Z M 6.76,5.45 7.57,6.61 C 7.44,6.7 7.29,6.77 7.13,6.83 L 6.63,5.51 C 6.67,5.49 6.73,5.48 6.76,5.45 Z"
     id="path42"
     inkscape:connector-curvature="0"
     style="fill:#e2e3db" />
</svg>
